Papirus-GTK/24x24/apps/color-picker.svg

<svg height="24" viewBox="0 0 24 24" width="24" xmlns="http://www.w3.org/2000/svg"><g transform="translate(0 -1028.3622)"><path d="m15.608274 1035.3397c-.783449-.7834-2.044922-.7834-2.828344 0l-6.3639317 6.3639c-.5243319.5244-.6898309 1.2607-.5123318 1.9265l-2.3160611 2.3161c-.7834552.7835-.7834821 2.0449.0000043 2.8284.7834488.7835 2.0449217.7835 2.8284144 0l2.315991-2.316c.6659193.1775 1.4022809.012 1.9265559-.5124l6.363968-6.3639c.783422-.7834.783412-2.0449-.000037-2.8284z" fill="#ccc"/><path d="m14.193359 6.390625c-.511227 0-1.022351.1942375-1.414062.5859375l-6.3632814 6.3652345c-.4537385.453797-.6222569 1.064186-.5488281 1.652344.0532472-.420194.2241329-.827607.5488281-1.152344l6.3632814-6.3652345c.783422-.7834 2.044676-.7834 2.828125 0l1.416016 1.4160156c.327758.3277797.508975.7389699.5625 1.1640629.074835-.5913919-.106485-1.2080172-.5625-1.6640629l-1.416016-1.4160156c-.391725-.3917-.902836-.5859375-1.414063-.5859375zm-8.3476559 8.935547l-2.2578125 2.257812c-.4559882.456015-.6392539 1.072717-.5644531 1.664063.0537222-.424674.2369862-.836577.5644531-1.164063l2.3164063-2.316406c-.0385624-.144648-.0525723-.292999-.0585938-.441406z" fill="#fff" opacity=".2" transform="translate(0 1028.3622)"/><path d="m17.585938 9.5566406c-.053734.4246367-.235079.8366504-.5625 1.1640624l-6.365235 6.363281c-.524275.5244-1.2598618.689219-1.9257811.511719l-2.3164063 2.316406c-.7834927.7835-2.0446762.7835-2.828125 0-.32748-.327485-.5107351-.739388-.5644531-1.164062-.0748067.591346.1084467 1.208048.5644531 1.664062.7834488.7835 2.0446323.7835 2.828125 0l2.3164063-2.316406c.6659193.1775 1.4015061.012681 1.9257811-.511719l6.365235-6.363281c.455674-.455662.636917-1.073045.5625-1.6640624zm-11.7187505 4.9375004c-.0140579.110936-.0260157.22035-.0214844.332031l.0585938-.058594c-.0238976-.08964-.0256852-.181931-.0371094-.273437z" opacity=".3" transform="translate(0 1028.3622)"/><rect fill="#ffbc48" height="11.999892" rx="3.5555558" ry="3.9999642" transform="matrix(.70710678 .70710678 -.70710678 .70710678 0 0)" width="8" x="740.13245" y="716.0589"/><path d="m16.931641 2.8828125c-.965668.0567996-1.954814.4821577-2.738282 1.265625l-2.828125 2.828125c-.894772.8947722-1.307446 2.0539386-1.251953 3.1445315.078085-.9356026.493798-1.8844226 1.251953-2.6425784l2.828125-2.8300781c1.566935-1.5669346 3.950907-1.7072965 5.34375-.3144531l.628907.6289062c.597278.5972785.895639 1.3802617.9375 2.1992188.083226-.9979894-.218638-1.9803568-.9375-2.6992188l-.628907-.6289062c-.696421-.6964217-1.639801-1.0079715-2.605468-.9511719z" fill="#fff" opacity=".2" transform="translate(0 1028.3622)"/><path d="m21.103516 6.6640625c-.078085.9356024-.493798 1.8844224-1.251954 2.6425781l-2.828124 2.8281254c-1.566935 1.566934-3.950907 1.707296-5.34375.314453l-.628907-.628907c-.597752-.597752-.896041-1.379549-.9375-2.1992182-.083226.9979892.218638 1.9803562.9375 2.6992182l.628907.628907c1.392843 1.392843 3.776815 1.252481 5.34375-.314453l2.828124-2.8281254c.894238-.8942377 1.306835-2.0525532 1.251954-3.1425781z" opacity=".3" transform="translate(0 1028.3622)"/><rect fill="#ffbc48" height="2.9999731" rx=".49999553" transform="matrix(.70710678 .70710678 -.70710678 .70710678 0 0)" width="11.999892" x="738.13251" y="725.05878"/><rect fill="#4e79ff" height="7.9999285" rx=".99999106" transform="matrix(.70710678 .70710678 -.70710678 .70710678 0 0)" width="1.9999821" x="743.13245" y="730.0589"/><path d="m9.2441406 6.4765625c-.1278084 0-.2555822.048551-.3535156.1464844l-1.4140625 1.4140625c-.1649111.1649111-.1811439.4118279-.0683594.6035156.0210216-.0354626.0378054-.0729616.0683594-.1035156l1.4140625-1.4140625c.1958668-.1958669.5111644-.1958669.7070312 0l7.7792968 7.7792971c.030806.030806.047244.067727.068359.103515.113738-.191871.096954-.438202-.068359-.603515l-7.7792968-7.7792971c-.0979334-.0979334-.2257072-.1464844-.3535156-.1464844z" fill="#fff" opacity=".2" transform="translate(0 1028.3622)"/><path d="m7.4082031 8.140625c-.1137373.1918709-.0969534.4401559.0683594.6054688l7.7773435 7.7773442c.195867.195866.513118.195866.708985 0l1.414062-1.414063c.165313-.165313.182097-.411645.068359-.603516-.021021.035463-.037805.072962-.068359.103516l-1.414062 1.414063c-.195867.195866-.513118.195866-.708985 0l-7.7773435-7.7792974c-.030806-.030806-.0472437-.0677273-.0683594-.1035156z" opacity=".3" transform="translate(0 1028.3622)"/></g></svg>

<?xml version="1.0" encoding="UTF-8" standalone="no"?>
<!-- Created with Inkscape (http://www.inkscape.org/) -->

<svg
   xmlns:dc="http://purl.org/dc/elements/1.1/"
   xmlns:cc="http://creativecommons.org/ns#"
   xmlns:rdf="http://www.w3.org/1999/02/22-rdf-syntax-ns#"
   xmlns:svg="http://www.w3.org/2000/svg"
   xmlns="http://www.w3.org/2000/svg"
   xmlns:sodipodi="http://sodipodi.sourceforge.net/DTD/sodipodi-0.dtd"
   xmlns:inkscape="http://www.inkscape.org/namespaces/inkscape"
   width="24"
   height="24"
   viewBox="0 0 24 24"
   id="svg2"
   version="1.1"
   inkscape:version="0.91 r13725"
   sodipodi:docname="color-picker.svg">
  <defs
     id="defs4" />
  <sodipodi:namedview
     id="base"
     pagecolor="#515151"
     bordercolor="#666666"
     borderopacity="1.0"
     inkscape:pageopacity="0"
     inkscape:pageshadow="2"
     inkscape:zoom="1"
     inkscape:cx="12.979362"
     inkscape:cy="11.963617"
     inkscape:document-units="px"
     inkscape:current-layer="layer1"
     showgrid="false"
     units="px"
     showborder="true"
     inkscape:window-width="1535"
     inkscape:window-height="876"
     inkscape:window-x="65"
     inkscape:window-y="24"
     inkscape:window-maximized="1" />
  <metadata
     id="metadata7">
    <rdf:RDF>
      <cc:Work
         rdf:about="">
        <dc:format>image/svg+xml</dc:format>
        <dc:type
           rdf:resource="http://purl.org/dc/dcmitype/StillImage" />
        <dc:title></dc:title>
      </cc:Work>
    </rdf:RDF>
  </metadata>
  <g
     inkscape:label="Layer 1"
     inkscape:groupmode="layer"
     id="layer1"
     transform="translate(0,-1028.3622)">
    <path
       inkscape:connector-curvature="0"
       style="opacity:1;fill:#cccccc;fill-opacity:1;stroke:none;stroke-width:10;stroke-linecap:round;stroke-linejoin:round;stroke-miterlimit:4;stroke-dasharray:none;stroke-opacity:1"
       d="m 15.608274,1035.3397 c -0.783449,-0.7834 -2.044922,-0.7834 -2.828344,0 l -6.3639317,6.3639 c -0.5243319,0.5244 -0.6898309,1.2607 -0.5123318,1.9265 l -2.3160611,2.3161 c -0.7834552,0.7835 -0.7834821,2.0449 4.3e-6,2.8284 0.7834488,0.7835 2.0449217,0.7835 2.8284144,0 l 2.315991,-2.316 c 0.6659193,0.1775 1.4022809,0.012 1.9265559,-0.5124 l 6.363968,-6.3639 c 0.783422,-0.7834 0.783412,-2.0449 -3.7e-5,-2.8284 l -1.414228,-1.4142 z"
       id="rect4136" />
    <path
       style="opacity:0.2;fill:#ffffff;fill-opacity:1;stroke:none;stroke-width:10;stroke-linecap:round;stroke-linejoin:round;stroke-miterlimit:4;stroke-dasharray:none;stroke-opacity:1"
       d="M 14.193359 6.390625 C 13.682132 6.390625 13.171008 6.5848625 12.779297 6.9765625 L 6.4160156 13.341797 C 5.9622771 13.795594 5.7937587 14.405983 5.8671875 14.994141 C 5.9204347 14.573947 6.0913204 14.166534 6.4160156 13.841797 L 12.779297 7.4765625 C 13.562719 6.6931625 14.823973 6.6931625 15.607422 7.4765625 L 17.023438 8.8925781 C 17.351196 9.2203578 17.532413 9.631548 17.585938 10.056641 C 17.660773 9.4652491 17.479453 8.8486238 17.023438 8.3925781 L 15.607422 6.9765625 C 15.215697 6.5848625 14.704586 6.390625 14.193359 6.390625 z M 5.8457031 15.326172 L 3.5878906 17.583984 C 3.1319024 18.039999 2.9486367 18.656701 3.0234375 19.248047 C 3.0771597 18.823373 3.2604237 18.41147 3.5878906 18.083984 L 5.9042969 15.767578 C 5.8657345 15.62293 5.8517246 15.474579 5.8457031 15.326172 z "
       transform="translate(0,1028.3622)"
       id="path4406" />
    <path
       style="opacity:0.3;fill:#000000;fill-opacity:1;stroke:none;stroke-width:10;stroke-linecap:round;stroke-linejoin:round;stroke-miterlimit:4;stroke-dasharray:none;stroke-opacity:1"
       d="M 17.585938 9.5566406 C 17.532204 9.9812773 17.350859 10.393291 17.023438 10.720703 L 10.658203 17.083984 C 10.133928 17.608384 9.3983412 17.773203 8.7324219 17.595703 L 6.4160156 19.912109 C 5.6325229 20.695609 4.3713394 20.695609 3.5878906 19.912109 C 3.2604106 19.584624 3.0771555 19.172721 3.0234375 18.748047 C 2.9486308 19.339393 3.1318842 19.956095 3.5878906 20.412109 C 4.3713394 21.195609 5.6325229 21.195609 6.4160156 20.412109 L 8.7324219 18.095703 C 9.3983412 18.273203 10.133928 18.108384 10.658203 17.583984 L 17.023438 11.220703 C 17.479112 10.765041 17.660355 10.147658 17.585938 9.5566406 z M 5.8671875 14.494141 C 5.8531296 14.605077 5.8411718 14.714491 5.8457031 14.826172 L 5.9042969 14.767578 C 5.8803993 14.677938 5.8786117 14.585647 5.8671875 14.494141 z "
       transform="translate(0,1028.3622)"
       id="path4411" />
    <rect
       rx="3.5555558"
       ry="3.9999642"
       y="716.0589"
       x="740.13245"
       height="11.999892"
       width="8"
       id="rect4140"
       style="opacity:1;fill:#ffbc48;fill-opacity:1;stroke:none;stroke-width:10;stroke-linecap:round;stroke-linejoin:round;stroke-miterlimit:4;stroke-dasharray:none;stroke-opacity:1"
       transform="matrix(0.70710678,0.70710678,-0.70710678,0.70710678,0,0)" />
    <path
       style="opacity:0.2;fill:#ffffff;fill-opacity:1;stroke:none;stroke-width:10;stroke-linecap:round;stroke-linejoin:round;stroke-miterlimit:4;stroke-dasharray:none;stroke-opacity:1"
       d="M 16.931641 2.8828125 C 15.965973 2.9396121 14.976827 3.3649702 14.193359 4.1484375 L 11.365234 6.9765625 C 10.470462 7.8713347 10.057788 9.0305011 10.113281 10.121094 C 10.191366 9.1854914 10.607079 8.2366714 11.365234 7.4785156 L 14.193359 4.6484375 C 15.760294 3.0815029 18.144266 2.941141 19.537109 4.3339844 L 20.166016 4.9628906 C 20.763294 5.5601691 21.061655 6.3431523 21.103516 7.1621094 C 21.186742 6.16412 20.884878 5.1817526 20.166016 4.4628906 L 19.537109 3.8339844 C 18.840688 3.1375627 17.897308 2.8260129 16.931641 2.8828125 z "
       transform="translate(0,1028.3622)"
       id="rect4386" />
    <path
       style="opacity:0.3;fill:#000000;fill-opacity:1;stroke:none;stroke-width:10;stroke-linecap:round;stroke-linejoin:round;stroke-miterlimit:4;stroke-dasharray:none;stroke-opacity:1"
       d="M 21.103516 6.6640625 C 21.025431 7.5996649 20.609718 8.5484849 19.851562 9.3066406 L 17.023438 12.134766 C 15.456503 13.7017 13.072531 13.842062 11.679688 12.449219 L 11.050781 11.820312 C 10.453029 11.22256 10.15474 10.440763 10.113281 9.6210938 C 10.030055 10.619083 10.331919 11.60145 11.050781 12.320312 L 11.679688 12.949219 C 13.072531 14.342062 15.456503 14.2017 17.023438 12.634766 L 19.851562 9.8066406 C 20.7458 8.9124029 21.158397 7.7540874 21.103516 6.6640625 z "
       transform="translate(0,1028.3622)"
       id="rect4391" />
    <rect
       style="opacity:1;fill:#ffbc48;fill-opacity:1;stroke:none;stroke-width:10;stroke-linecap:round;stroke-linejoin:round;stroke-miterlimit:4;stroke-dasharray:none;stroke-opacity:1"
       id="rect4142"
       width="11.999892"
       height="2.9999731"
       x="738.13251"
       y="725.05878"
       ry="0.49999553"
       rx="0.49999553"
       transform="matrix(0.70710678,0.70710678,-0.70710678,0.70710678,0,0)" />
    <rect
       style="opacity:1;fill:#4e79ff;fill-opacity:1;stroke:none;stroke-width:10;stroke-linecap:round;stroke-linejoin:round;stroke-miterlimit:4;stroke-dasharray:none;stroke-opacity:1"
       id="rect4151"
       width="1.9999821"
       height="7.9999285"
       x="743.13245"
       y="730.0589"
       rx="0.99999106"
       ry="0.99999106"
       transform="matrix(0.70710678,0.70710678,-0.70710678,0.70710678,0,0)" />
    <path
       style="opacity:0.2;fill:#ffffff;fill-opacity:1;stroke:none;stroke-width:10;stroke-linecap:round;stroke-linejoin:round;stroke-miterlimit:4;stroke-dasharray:none;stroke-opacity:1"
       d="M 9.2441406 6.4765625 C 9.1163322 6.4765625 8.9885584 6.5251135 8.890625 6.6230469 L 7.4765625 8.0371094 C 7.3116514 8.2020205 7.2954186 8.4489373 7.4082031 8.640625 C 7.4292247 8.6051624 7.4460085 8.5676634 7.4765625 8.5371094 L 8.890625 7.1230469 C 9.0864918 6.92718 9.4017894 6.92718 9.5976562 7.1230469 L 17.376953 14.902344 C 17.407759 14.93315 17.424197 14.970071 17.445312 15.005859 C 17.55905 14.813988 17.542266 14.567657 17.376953 14.402344 L 9.5976562 6.6230469 C 9.4997228 6.5251135 9.371949 6.4765625 9.2441406 6.4765625 z "
       transform="translate(0,1028.3622)"
       id="rect4396" />
    <path
       style="opacity:0.3;fill:#000000;fill-opacity:1;stroke:none;stroke-width:10;stroke-linecap:round;stroke-linejoin:round;stroke-miterlimit:4;stroke-dasharray:none;stroke-opacity:1"
       d="M 7.4082031 8.140625 C 7.2944658 8.3324959 7.3112497 8.5807809 7.4765625 8.7460938 L 15.253906 16.523438 C 15.449773 16.719304 15.767024 16.719304 15.962891 16.523438 L 17.376953 15.109375 C 17.542266 14.944062 17.55905 14.69773 17.445312 14.505859 C 17.424291 14.541322 17.407507 14.578821 17.376953 14.609375 L 15.962891 16.023438 C 15.767024 16.219304 15.449773 16.219304 15.253906 16.023438 L 7.4765625 8.2441406 C 7.4457565 8.2133346 7.4293188 8.1764133 7.4082031 8.140625 z "
       transform="translate(0,1028.3622)"
       id="rect4401" />
  </g>
</svg>
